!! 00000] TT[WS
!!!OTL: Guijie shaoshu
!!!ARE: Asia, China, Shanxi Linxian
!! Ethnic Group: Han
!! WII, 93 (2)
!!!SCT: J0540
!!!YEM: Copyright 1995, estate of Helmut Schaffrath.
**kern
*ICvox
*Ivox
*M2/4
*k[b-e-a-]
*E-:
{8.ee-
16cc
8b-
16cc
16cc
=1
2ee-
=2
8.ee-
16ff
8gg
8gg
=3
2bb-}
=4
{8ee-
8g
8ff
16ff
16gg
=5
8gg
16b-
16cc
4ee-
=6
8ee-
8gg
8ff
16ff
16cc
=7
2b-}
==
!!!AGN: Xiaodiao. Qingge, Sichun
!!!ONB: ESAC (Essen Associative Code) Database: CHINA
!!!AMT: simple duple
!!!AIN: vox
!!!EED: Helmut Schaffrath
!!!EEV: 1.0
*-
